X:39
T:Breakdown
M:2/4
L:1/16
Z: Jason R. Fruit <Jason R. Fruit@big-mac>
N: From Vee Latty, who called it "Old Joe Clark"
K:A
AB | c2e2 e2e2 | fefg fecB | ce2f e2ef | gefg e2 AB |
c2e2 e2ef | afea fecB | ABcA BAFD | EFAB [eA]2 :|
|: CB, | A,2A,2 C2E2 | ABcA BAFA | ce2f e2ef | gefg e4 |
A,2A,2 C2E2 | ABcA BAFG | ABcA BAFD | [AE][AF][eA][eB] [eA]2 :|

